X: 10
T: Dublin, The
Z: Rice Paddy
S: https://thesession.org/tunes/384#setting53106
R: reel
M: 4/4
L: 1/8
K: Dmaj
dF~F2 dedc|dF~F2 AFEF|dF~F2 dfed|cABF AFEF|
dF~F2 dedc|dF~F2 AFEF|d3c dfed|cABF AFEF||
eA~A2 eAfA|eA~A2 BAFA|eA~A2 egfe|dBcA BAFA|
eA~A2 eAfA|eA~A2 BAFA|e3d egfe|dBcA BAFA||
d3c dAFA|dedA FDFA|d3c dfed|cABF AFEF|
d3c dAFA|dedA FDFA|dcdf egfe|cABc d4||

%-------------------- TUNE SEPARATOR --------------------%

